icons/bellRinging@bell,notification.svg

<?xml version="1.0" encoding="UTF-8"?><svg id="a" xmlns="http://www.w3.org/2000/svg" viewBox="0 0 24 24"><defs><style>.b{fill:none;stroke:#000;stroke-linecap:round;stroke-linejoin:round;stroke-width:1.5px;}</style></defs><path class="b" d="M12,3.18c2.54,0,4.6,2.06,4.6,4.6,0,0-.12,9.2,3.88,10.32H3.52c4-1.12,3.88-10.32,3.88-10.32,0-2.54,2.06-4.6,4.6-4.6m-2.96,18.21s2.96,1.38,5.92,0m5.28-13.51c0-2.35-1.18-4.71-2.35-5.88M3.94,7.89c-.17-2.36,1-4.71,2.35-5.88"/></svg>

<svg id="Layer_1" data-name="Layer 1" xmlns="http://www.w3.org/2000/svg" viewBox="0 0 24 24"><defs><style>.cls-1{fill:none;stroke:#000;stroke-linecap:round;stroke-linejoin:round;stroke-width:1.5px;}</style></defs><path class="cls-1" d="M12,3.18a4.6,4.6,0,0,1,4.6,4.6S16.48,17,20.48,18.09h-17C7.52,17,7.4,7.78,7.4,7.78A4.6,4.6,0,0,1,12,3.18M9,21.39a7.61,7.61,0,0,0,5.92,0M20.24,7.88A9,9,0,0,0,17.88,2M3.94,7.89A7.54,7.54,0,0,1,6.29,2"/></svg>
